X: 5213
T: Broadaxe Breakdown
R: reel
M: 4/4
K: Amajor
A2 Ac BAFE|EFGB A2cA|cAce aecA|Bcef e2 cB|
A2 Ac BAFE|EFGB A2cA|cAce aecA|BAGB A2 ce:|
ceef ecBc|f2fa fece|ceef ecBA|cecA B2 ce|
ceef ecBc|f2fa fece|afec fecA|ecBc A2 ce:|

